X: 20368
T: John Clifford's
R: polka
M: 2/4
K: Dmajor
|:A2 A B/c/|d/c/B/A/ FD|FA A/F/D/E/|FE EF/G/|
A2 A B/c/|d/c/B/A/ FD|FA d>e|fe d2:|
|:FA d>e|fe e>d|cA ce|dc BA|
FA d>e|fe e>d|cA ce|d2 d>G:|

